X:1
T:Polska efter Håkan på Salte
O:Blekinge
R:Polska
M:3/4
L:1/16
Z:Andy Davey 2018
K:Am
c2cd B2Bc A2A2 | e2ef d2df e4 | c2cd B2Bc A2A2 | e2ef d2df e4 |
|: e3c c3e g2e2 | d3f a2g2 e4 | c2cd B2Bc A2AB |[1 cBA^G A2E2 C2E2 :|[2 cBA^G A4 A,4 |

